X:1
T:Title
%%score 1 { 2 | 3 }
L:1/8
Q:1/4=93
M:4/4
K:G
V:1 treble nm="Grand Piano, Soprano"
V:2 bass nm="Choir Pad, Sochi, 11.11.11.11 D"
V:3 bass 
V:1
 [DB][DB][DB][DB] [B,G][B,D][CE][CF] | [DG]2 [DA]2 [DB]4 | [DA][DA][DA][DA] [DF]D[DF][FA] | %3
w: By~William~James~Kirkpatrick,~1882 * * * * * * *|||
 [EG]2 [^CE]2 D4 | [DB][DB][DB][DB] [B,G][B,D][CE][CF] | [DG]2 [DA]2 [DB]4 | %6
w: |||
 [Ec][Ec][DA][DA] [Ec][Ec][DG][DG] | [EA]2 [DF]2 [DG]4 | [Gd][Gd][Gd][Gd] [GB]G[GA][GB] | %9
w: |||
 [Gc]2 [Ge]2 [Gd]4 | [Gd][Gd][Gd][Gd] [GB][DG][GB][Gd] | [Fc]2 [GB]2 [DA]4 | %12
w: |||
 [DB][DB][DB][DB] [B,G][B,D][CE][CF] | [DG]2 [DA]2 [DB]4 | [Ec][Ec][DA][DA] [Ec][Ec][DG][DG] | %15
w: |||
 [EA]2 [DF]2 [DG]4- | [DG]4 z4 |] %17
w: ||
V:2
 G,G,G,G, G,G,G,A, | G,2 F,2 G,4 | F,F,F,F, A,F,A,A, | B,2 A,G, F,4 | G,G,G,G, G,G,G,A, | %5
 G,2 F,2 G,4 | G,G,F,F, G,G,[K:treble]DD | C2 A,2 B,4 | B,B,B,B, DB,[K:treble]CD | E2 C2 B,4 | %10
 B,B,B,B, DB,DB, | A,2 G,2 F,4 | G,G,G,G, G,G,G,A, | G,2 F,2 G,4 | G,G,F,F, G,G,[K:treble]DD | %15
 C2 A,2 B,4- | B,4 z4 |] %17
V:3
 G,,G,,G,,G,, G,,G,,C,C, | B,,2 D,2 G,,4 | D,D,D,D, D,D,D,D, | G,,2 A,,2 D,4 | %4
 G,,G,,G,,G,, G,,G,,C,C, | B,,2 D,2 G,,4 | C,C,D,D, z2 B,,B,, | C,2 D,2 G,,4 | G,G,G,G, G,G,G,G, | %9
 C,2 C,2 G,4 | G,G,G,G, G,G,G,G, | D,2 D,2 D,4 | G,,G,,G,,G,, G,,G,,C,C, | B,,2 D,2 G,,4 | %14
 C,C,D,D, z2 B,,B,, | C,2 D,2 G,,4- | G,,4 z4 |] %17

